X: 1
T: the Road to Errogie
S: Scottish reel, originally in B major
Z: 
C: Adam Sutherland
M: C|
L: 1/8
K: A
AF |\
"A"EA A2 "E"BABc | "A"eA A2 "E"Bcea | "D"f3f "A/C#"ecAc | "Bm"BABc "E"BAFA | 
"A"EA A2 "E"BABc | "A"eA A2 "E"Bcea | "D"f3f "A"ecAc | "E"BABc "A"A2 :| 
ce |\
"A"a2-a a-a2ba | "A/C#"c'3b a3 e | "D"f2 ea- "A"ae f2- | "Bm"feae "E"fece | 
"A"a2-a a-a2ba | "A/C#"c'3b a3 e | "D"f3 a "A"ecAc | "E"BABc "A"A2 ce | 
"A"a2-a a-a2ba | "A7/C#"c'3b a3 e | "D"f2 ea- "A"ae f2- | "Bm"feae "E"fece | 
"A"EA A2 "E"BABc | "A"eA A2 "E"Bcea | "D"f3f "A"ecAc | "E"BABc "A"A2 |] 
%%text Ending: Choke the last note
